the-plus-addons-for-block-editor/assets/images/dynamic-category/3.svg

<svg xmlns="http://www.w3.org/2000/svg" width="1000" height="700" fill="none" viewBox="0 0 1000 700"><path fill="#fff" d="M0 0h1000v700H0z"/><path fill="#A6A6A6" d="M80 258h260v70H80z"/><path fill="#000" d="M111.256 285.122v-2.031h14.182v2.031h-5.947V302h-2.289v-16.878h-5.946ZM128.971 302v-18.909h11.412v2.031h-9.122v6.389h8.531v2.032h-8.531v6.426h9.27V302h-11.56Zm16.647-18.909 4.875 7.866h.148l4.875-7.866h2.696l-5.946 9.454 5.946 9.455h-2.696l-4.875-7.719h-.148L145.618 302h-2.696l6.094-9.455-6.094-9.454h2.696Zm14.54 2.031v-2.031h14.182v2.031h-5.946V302h-2.29v-16.878h-5.946Z"/><rect width="32" height="32" x="278" y="277" fill="#fff" rx="16"/><path fill="#000" d="M294.592 299.186c-.884 0-1.675-.166-2.373-.498-.698-.335-1.253-.795-1.664-1.378a3.652 3.652 0 0 1-.649-2.002h2.386c.044.557.285 1.012.723 1.365.437.349.963.524 1.577.524.482 0 .911-.111 1.286-.331.376-.221.672-.529.888-.922.217-.393.323-.842.319-1.346a2.719 2.719 0 0 0-.325-1.365 2.436 2.436 0 0 0-.908-.935 2.535 2.535 0 0 0-1.326-.344 3.138 3.138 0 0 0-1.2.225c-.393.155-.705.358-.935.61l-2.22-.365.709-7h7.875v2.055h-5.84l-.391 3.6h.08c.251-.296.607-.542 1.067-.736a3.76 3.76 0 0 1 1.511-.298c.822 0 1.556.194 2.201.583a4.121 4.121 0 0 1 1.524 1.591c.372.676.557 1.449.557 2.32 0 .897-.207 1.697-.623 2.399a4.4 4.4 0 0 1-1.717 1.651c-.729.398-1.573.597-2.532.597ZM111.256 398.122v-2.031h14.182v2.031h-5.947V415h-2.289v-16.878h-5.946ZM128.971 415v-18.909h11.412v2.031h-9.122v6.389h8.531v2.032h-8.531v6.426h9.27V415h-11.56Zm16.647-18.909 4.875 7.866h.148l4.875-7.866h2.696l-5.946 9.454 5.946 9.455h-2.696l-4.875-7.719h-.148L145.618 415h-2.696l6.094-9.455-6.094-9.454h2.696Zm14.54 2.031v-2.031h14.182v2.031h-5.946V415h-2.29v-16.878h-5.946Z"/><rect width="32" height="32" x="278" y="390" fill="#fff" rx="16"/><path fill="#000" d="M294.592 412.186c-.884 0-1.675-.166-2.373-.498-.698-.335-1.253-.795-1.664-1.378a3.652 3.652 0 0 1-.649-2.002h2.386c.044.557.285 1.012.723 1.365.437.349.963.524 1.577.524.482 0 .911-.111 1.286-.331.376-.221.672-.529.888-.922.217-.393.323-.842.319-1.346a2.719 2.719 0 0 0-.325-1.365 2.436 2.436 0 0 0-.908-.935 2.535 2.535 0 0 0-1.326-.344 3.138 3.138 0 0 0-1.2.225c-.393.155-.705.358-.935.61l-2.22-.365.709-7h7.875v2.055h-5.84l-.391 3.6h.08c.251-.296.607-.542 1.067-.736a3.76 3.76 0 0 1 1.511-.298c.822 0 1.556.194 2.201.583a4.121 4.121 0 0 1 1.524 1.591c.372.676.557 1.449.557 2.32 0 .897-.207 1.697-.623 2.399a4.4 4.4 0 0 1-1.717 1.651c-.729.398-1.573.597-2.532.597ZM401.256 285.122v-2.031h14.182v2.031h-5.947V302h-2.289v-16.878h-5.946ZM418.971 302v-18.909h11.412v2.031h-9.122v6.389h8.531v2.032h-8.531v6.426h9.27V302h-11.56Zm16.647-18.909 4.875 7.866h.148l4.875-7.866h2.696l-5.946 9.454 5.946 9.455h-2.696l-4.875-7.719h-.148L435.618 302h-2.696l6.094-9.455-6.094-9.454h2.696Zm14.54 2.031v-2.031h14.182v2.031h-5.946V302h-2.29v-16.878h-5.946Z"/><rect width="32" height="32" x="568" y="277" fill="#fff" rx="16"/><path fill="#000" d="M584.592 299.186c-.884 0-1.675-.166-2.373-.498-.698-.335-1.253-.795-1.664-1.378a3.652 3.652 0 0 1-.649-2.002h2.386c.044.557.285 1.012.723 1.365.437.349.963.524 1.577.524.482 0 .911-.111 1.286-.331.376-.221.672-.529.888-.922.217-.393.323-.842.319-1.346a2.719 2.719 0 0 0-.325-1.365 2.436 2.436 0 0 0-.908-.935 2.535 2.535 0 0 0-1.326-.344 3.138 3.138 0 0 0-1.2.225c-.393.155-.705.358-.935.61l-2.22-.365.709-7h7.875v2.055h-5.84l-.391 3.6h.08c.251-.296.607-.542 1.067-.736a3.76 3.76 0 0 1 1.511-.298c.822 0 1.556.194 2.201.583a4.121 4.121 0 0 1 1.524 1.591c.372.676.557 1.449.557 2.32 0 .897-.207 1.697-.623 2.399a4.4 4.4 0 0 1-1.717 1.651c-.729.398-1.573.597-2.532.597ZM401.256 398.122v-2.031h14.182v2.031h-5.947V415h-2.289v-16.878h-5.946ZM418.971 415v-18.909h11.412v2.031h-9.122v6.389h8.531v2.032h-8.531v6.426h9.27V415h-11.56Zm16.647-18.909 4.875 7.866h.148l4.875-7.866h2.696l-5.946 9.454 5.946 9.455h-2.696l-4.875-7.719h-.148L435.618 415h-2.696l6.094-9.455-6.094-9.454h2.696Zm14.54 2.031v-2.031h14.182v2.031h-5.946V415h-2.29v-16.878h-5.946Z"/><rect width="32" height="32" x="568" y="390" fill="#fff" rx="16"/><path fill="#000" d="M584.592 412.186c-.884 0-1.675-.166-2.373-.498-.698-.335-1.253-.795-1.664-1.378a3.652 3.652 0 0 1-.649-2.002h2.386c.044.557.285 1.012.723 1.365.437.349.963.524 1.577.524.482 0 .911-.111 1.286-.331.376-.221.672-.529.888-.922.217-.393.323-.842.319-1.346a2.719 2.719 0 0 0-.325-1.365 2.436 2.436 0 0 0-.908-.935 2.535 2.535 0 0 0-1.326-.344 3.138 3.138 0 0 0-1.2.225c-.393.155-.705.358-.935.61l-2.22-.365.709-7h7.875v2.055h-5.84l-.391 3.6h.08c.251-.296.607-.542 1.067-.736a3.76 3.76 0 0 1 1.511-.298c.822 0 1.556.194 2.201.583a4.121 4.121 0 0 1 1.524 1.591c.372.676.557 1.449.557 2.32 0 .897-.207 1.697-.623 2.399a4.4 4.4 0 0 1-1.717 1.651c-.729.398-1.573.597-2.532.597ZM691.256 285.122v-2.031h14.182v2.031h-5.947V302h-2.289v-16.878h-5.946ZM708.971 302v-18.909h11.412v2.031h-9.122v6.389h8.531v2.032h-8.531v6.426h9.27V302h-11.56Zm16.647-18.909 4.875 7.866h.148l4.875-7.866h2.696l-5.946 9.454 5.946 9.455h-2.696l-4.875-7.719h-.148L725.618 302h-2.696l6.094-9.455-6.094-9.454h2.696Zm14.54 2.031v-2.031h14.182v2.031h-5.946V302h-2.29v-16.878h-5.946Z"/><rect width="32" height="32" x="858" y="277" fill="#fff" rx="16"/><path fill="#000" d="M874.592 299.186c-.884 0-1.675-.166-2.373-.498-.698-.335-1.253-.795-1.664-1.378a3.652 3.652 0 0 1-.649-2.002h2.386c.044.557.285 1.012.723 1.365.437.349.963.524 1.577.524.482 0 .911-.111 1.286-.331.376-.221.672-.529.888-.922.217-.393.323-.842.319-1.346a2.719 2.719 0 0 0-.325-1.365 2.436 2.436 0 0 0-.908-.935 2.535 2.535 0 0 0-1.326-.344 3.138 3.138 0 0 0-1.2.225c-.393.155-.705.358-.935.61l-2.22-.365.709-7h7.875v2.055h-5.84l-.391 3.6h.08c.251-.296.607-.542 1.067-.736a3.76 3.76 0 0 1 1.511-.298c.822 0 1.556.194 2.201.583a4.121 4.121 0 0 1 1.524 1.591c.372.676.557 1.449.557 2.32 0 .897-.207 1.697-.623 2.399a4.4 4.4 0 0 1-1.717 1.651c-.729.398-1.573.597-2.532.597ZM691.256 398.122v-2.031h14.182v2.031h-5.947V415h-2.289v-16.878h-5.946ZM708.971 415v-18.909h11.412v2.031h-9.122v6.389h8.531v2.032h-8.531v6.426h9.27V415h-11.56Zm16.647-18.909 4.875 7.866h.148l4.875-7.866h2.696l-5.946 9.454 5.946 9.455h-2.696l-4.875-7.719h-.148L725.618 415h-2.696l6.094-9.455-6.094-9.454h2.696Zm14.54 2.031v-2.031h14.182v2.031h-5.946V415h-2.29v-16.878h-5.946Z"/><rect width="32" height="32" x="858" y="390" fill="#fff" rx="16"/><path fill="#000" d="M874.592 412.186c-.884 0-1.675-.166-2.373-.498-.698-.335-1.253-.795-1.664-1.378a3.652 3.652 0 0 1-.649-2.002h2.386c.044.557.285 1.012.723 1.365.437.349.963.524 1.577.524.482 0 .911-.111 1.286-.331.376-.221.672-.529.888-.922.217-.393.323-.842.319-1.346a2.719 2.719 0 0 0-.325-1.365 2.436 2.436 0 0 0-.908-.935 2.535 2.535 0 0 0-1.326-.344 3.138 3.138 0 0 0-1.2.225c-.393.155-.705.358-.935.61l-2.22-.365.709-7h7.875v2.055h-5.84l-.391 3.6h.08c.251-.296.607-.542 1.067-.736a3.76 3.76 0 0 1 1.511-.298c.822 0 1.556.194 2.201.583a4.121 4.121 0 0 1 1.524 1.591c.372.676.557 1.449.557 2.32 0 .897-.207 1.697-.623 2.399a4.4 4.4 0 0 1-1.717 1.651c-.729.398-1.573.597-2.532.597Z"/></svg>

<svg width="1000" height="700" viewBox="0 0 1000 700" fill="none" xmlns="http://www.w3.org/2000/svg">
<rect width="1000" height="700" fill="white"/>
<rect width="260" height="70" transform="translate(80 258)" fill="#A6A6A6"/>
<path d="M111.256 285.122V283.091H125.438V285.122H119.491V302H117.202V285.122H111.256ZM128.971 302V283.091H140.383V285.122H131.261V291.511H139.792V293.543H131.261V299.969H140.531V302H128.971ZM145.618 283.091L150.493 290.957H150.641L155.516 283.091H158.212L152.266 292.545L158.212 302H155.516L150.641 294.281H150.493L145.618 302H142.922L149.016 292.545L142.922 283.091H145.618ZM160.158 285.122V283.091H174.34V285.122H168.394V302H166.104V285.122H160.158Z" fill="black"/>
<rect x="278" y="277" width="32" height="32" rx="16" fill="white"/>
<path d="M294.592 299.186C293.708 299.186 292.917 299.02 292.219 298.688C291.521 298.353 290.966 297.893 290.555 297.31C290.149 296.726 289.932 296.059 289.906 295.308H292.292C292.336 295.865 292.577 296.32 293.015 296.673C293.452 297.022 293.978 297.197 294.592 297.197C295.074 297.197 295.503 297.086 295.878 296.866C296.254 296.645 296.55 296.337 296.766 295.944C296.983 295.551 297.089 295.102 297.085 294.598C297.089 294.086 296.981 293.631 296.76 293.233C296.539 292.835 296.236 292.524 295.852 292.298C295.467 292.068 295.025 291.954 294.526 291.954C294.119 291.949 293.719 292.024 293.326 292.179C292.933 292.334 292.621 292.537 292.391 292.789L290.171 292.424L290.88 285.424H298.755V287.479H292.915L292.524 291.079H292.604C292.855 290.783 293.211 290.537 293.671 290.343C294.13 290.144 294.634 290.045 295.182 290.045C296.004 290.045 296.738 290.239 297.383 290.628C298.028 291.012 298.536 291.543 298.907 292.219C299.279 292.895 299.464 293.668 299.464 294.539C299.464 295.436 299.257 296.236 298.841 296.938C298.43 297.637 297.858 298.187 297.124 298.589C296.395 298.987 295.551 299.186 294.592 299.186Z" fill="black"/>
<path d="M111.256 398.122V396.091H125.438V398.122H119.491V415H117.202V398.122H111.256ZM128.971 415V396.091H140.383V398.122H131.261V404.511H139.792V406.543H131.261V412.969H140.531V415H128.971ZM145.618 396.091L150.493 403.957H150.641L155.516 396.091H158.212L152.266 405.545L158.212 415H155.516L150.641 407.281H150.493L145.618 415H142.922L149.016 405.545L142.922 396.091H145.618ZM160.158 398.122V396.091H174.34V398.122H168.394V415H166.104V398.122H160.158Z" fill="black"/>
<rect x="278" y="390" width="32" height="32" rx="16" fill="white"/>
<path d="M294.592 412.186C293.708 412.186 292.917 412.02 292.219 411.688C291.521 411.353 290.966 410.893 290.555 410.31C290.149 409.726 289.932 409.059 289.906 408.308H292.292C292.336 408.865 292.577 409.32 293.015 409.673C293.452 410.022 293.978 410.197 294.592 410.197C295.074 410.197 295.503 410.086 295.878 409.866C296.254 409.645 296.55 409.337 296.766 408.944C296.983 408.551 297.089 408.102 297.085 407.598C297.089 407.086 296.981 406.631 296.76 406.233C296.539 405.835 296.236 405.524 295.852 405.298C295.467 405.068 295.025 404.954 294.526 404.954C294.119 404.949 293.719 405.024 293.326 405.179C292.933 405.334 292.621 405.537 292.391 405.789L290.171 405.424L290.88 398.424H298.755V400.479H292.915L292.524 404.079H292.604C292.855 403.783 293.211 403.537 293.671 403.343C294.13 403.144 294.634 403.045 295.182 403.045C296.004 403.045 296.738 403.239 297.383 403.628C298.028 404.012 298.536 404.543 298.907 405.219C299.279 405.895 299.464 406.668 299.464 407.539C299.464 408.436 299.257 409.236 298.841 409.938C298.43 410.637 297.858 411.187 297.124 411.589C296.395 411.987 295.551 412.186 294.592 412.186Z" fill="black"/>
<path d="M401.256 285.122V283.091H415.438V285.122H409.491V302H407.202V285.122H401.256ZM418.971 302V283.091H430.383V285.122H421.261V291.511H429.792V293.543H421.261V299.969H430.531V302H418.971ZM435.618 283.091L440.493 290.957H440.641L445.516 283.091H448.212L442.266 292.545L448.212 302H445.516L440.641 294.281H440.493L435.618 302H432.922L439.016 292.545L432.922 283.091H435.618ZM450.158 285.122V283.091H464.34V285.122H458.394V302H456.104V285.122H450.158Z" fill="black"/>
<rect x="568" y="277" width="32" height="32" rx="16" fill="white"/>
<path d="M584.592 299.186C583.708 299.186 582.917 299.02 582.219 298.688C581.521 298.353 580.966 297.893 580.555 297.31C580.149 296.726 579.932 296.059 579.906 295.308H582.292C582.336 295.865 582.577 296.32 583.015 296.673C583.452 297.022 583.978 297.197 584.592 297.197C585.074 297.197 585.503 297.086 585.878 296.866C586.254 296.645 586.55 296.337 586.766 295.944C586.983 295.551 587.089 295.102 587.085 294.598C587.089 294.086 586.981 293.631 586.76 293.233C586.539 292.835 586.236 292.524 585.852 292.298C585.467 292.068 585.025 291.954 584.526 291.954C584.119 291.949 583.719 292.024 583.326 292.179C582.933 292.334 582.621 292.537 582.391 292.789L580.171 292.424L580.88 285.424H588.755V287.479H582.915L582.524 291.079H582.604C582.855 290.783 583.211 290.537 583.671 290.343C584.13 290.144 584.634 290.045 585.182 290.045C586.004 290.045 586.738 290.239 587.383 290.628C588.028 291.012 588.536 291.543 588.907 292.219C589.279 292.895 589.464 293.668 589.464 294.539C589.464 295.436 589.257 296.236 588.841 296.938C588.43 297.637 587.858 298.187 587.124 298.589C586.395 298.987 585.551 299.186 584.592 299.186Z" fill="black"/>
<path d="M401.256 398.122V396.091H415.438V398.122H409.491V415H407.202V398.122H401.256ZM418.971 415V396.091H430.383V398.122H421.261V404.511H429.792V406.543H421.261V412.969H430.531V415H418.971ZM435.618 396.091L440.493 403.957H440.641L445.516 396.091H448.212L442.266 405.545L448.212 415H445.516L440.641 407.281H440.493L435.618 415H432.922L439.016 405.545L432.922 396.091H435.618ZM450.158 398.122V396.091H464.34V398.122H458.394V415H456.104V398.122H450.158Z" fill="black"/>
<rect x="568" y="390" width="32" height="32" rx="16" fill="white"/>
<path d="M584.592 412.186C583.708 412.186 582.917 412.02 582.219 411.688C581.521 411.353 580.966 410.893 580.555 410.31C580.149 409.726 579.932 409.059 579.906 408.308H582.292C582.336 408.865 582.577 409.32 583.015 409.673C583.452 410.022 583.978 410.197 584.592 410.197C585.074 410.197 585.503 410.086 585.878 409.866C586.254 409.645 586.55 409.337 586.766 408.944C586.983 408.551 587.089 408.102 587.085 407.598C587.089 407.086 586.981 406.631 586.76 406.233C586.539 405.835 586.236 405.524 585.852 405.298C585.467 405.068 585.025 404.954 584.526 404.954C584.119 404.949 583.719 405.024 583.326 405.179C582.933 405.334 582.621 405.537 582.391 405.789L580.171 405.424L580.88 398.424H588.755V400.479H582.915L582.524 404.079H582.604C582.855 403.783 583.211 403.537 583.671 403.343C584.13 403.144 584.634 403.045 585.182 403.045C586.004 403.045 586.738 403.239 587.383 403.628C588.028 404.012 588.536 404.543 588.907 405.219C589.279 405.895 589.464 406.668 589.464 407.539C589.464 408.436 589.257 409.236 588.841 409.938C588.43 410.637 587.858 411.187 587.124 411.589C586.395 411.987 585.551 412.186 584.592 412.186Z" fill="black"/>
<path d="M691.256 285.122V283.091H705.438V285.122H699.491V302H697.202V285.122H691.256ZM708.971 302V283.091H720.383V285.122H711.261V291.511H719.792V293.543H711.261V299.969H720.531V302H708.971ZM725.618 283.091L730.493 290.957H730.641L735.516 283.091H738.212L732.266 292.545L738.212 302H735.516L730.641 294.281H730.493L725.618 302H722.922L729.016 292.545L722.922 283.091H725.618ZM740.158 285.122V283.091H754.34V285.122H748.394V302H746.104V285.122H740.158Z" fill="black"/>
<rect x="858" y="277" width="32" height="32" rx="16" fill="white"/>
<path d="M874.592 299.186C873.708 299.186 872.917 299.02 872.219 298.688C871.521 298.353 870.966 297.893 870.555 297.31C870.149 296.726 869.932 296.059 869.906 295.308H872.292C872.336 295.865 872.577 296.32 873.015 296.673C873.452 297.022 873.978 297.197 874.592 297.197C875.074 297.197 875.503 297.086 875.878 296.866C876.254 296.645 876.55 296.337 876.766 295.944C876.983 295.551 877.089 295.102 877.085 294.598C877.089 294.086 876.981 293.631 876.76 293.233C876.539 292.835 876.236 292.524 875.852 292.298C875.467 292.068 875.025 291.954 874.526 291.954C874.119 291.949 873.719 292.024 873.326 292.179C872.933 292.334 872.621 292.537 872.391 292.789L870.171 292.424L870.88 285.424H878.755V287.479H872.915L872.524 291.079H872.604C872.855 290.783 873.211 290.537 873.671 290.343C874.13 290.144 874.634 290.045 875.182 290.045C876.004 290.045 876.738 290.239 877.383 290.628C878.028 291.012 878.536 291.543 878.907 292.219C879.279 292.895 879.464 293.668 879.464 294.539C879.464 295.436 879.257 296.236 878.841 296.938C878.43 297.637 877.858 298.187 877.124 298.589C876.395 298.987 875.551 299.186 874.592 299.186Z" fill="black"/>
<path d="M691.256 398.122V396.091H705.438V398.122H699.491V415H697.202V398.122H691.256ZM708.971 415V396.091H720.383V398.122H711.261V404.511H719.792V406.543H711.261V412.969H720.531V415H708.971ZM725.618 396.091L730.493 403.957H730.641L735.516 396.091H738.212L732.266 405.545L738.212 415H735.516L730.641 407.281H730.493L725.618 415H722.922L729.016 405.545L722.922 396.091H725.618ZM740.158 398.122V396.091H754.34V398.122H748.394V415H746.104V398.122H740.158Z" fill="black"/>
<rect x="858" y="390" width="32" height="32" rx="16" fill="white"/>
<path d="M874.592 412.186C873.708 412.186 872.917 412.02 872.219 411.688C871.521 411.353 870.966 410.893 870.555 410.31C870.149 409.726 869.932 409.059 869.906 408.308H872.292C872.336 408.865 872.577 409.32 873.015 409.673C873.452 410.022 873.978 410.197 874.592 410.197C875.074 410.197 875.503 410.086 875.878 409.866C876.254 409.645 876.55 409.337 876.766 408.944C876.983 408.551 877.089 408.102 877.085 407.598C877.089 407.086 876.981 406.631 876.76 406.233C876.539 405.835 876.236 405.524 875.852 405.298C875.467 405.068 875.025 404.954 874.526 404.954C874.119 404.949 873.719 405.024 873.326 405.179C872.933 405.334 872.621 405.537 872.391 405.789L870.171 405.424L870.88 398.424H878.755V400.479H872.915L872.524 404.079H872.604C872.855 403.783 873.211 403.537 873.671 403.343C874.13 403.144 874.634 403.045 875.182 403.045C876.004 403.045 876.738 403.239 877.383 403.628C878.028 404.012 878.536 404.543 878.907 405.219C879.279 405.895 879.464 406.668 879.464 407.539C879.464 408.436 879.257 409.236 878.841 409.938C878.43 410.637 877.858 411.187 877.124 411.589C876.395 411.987 875.551 412.186 874.592 412.186Z" fill="black"/>
</svg>
